X: 30326
T: Old Micky McKiernan's
R: reel
M: 4/4
K: Dmajor
|:defg afdf|afdf e~B3|defg afdf|abaf ee dB|
defg afdf|afdf eBBA|~B3A FAdB|AFDF ED BA:|

